package/converter/svg/regular/backpack.svg

<svg xmlns="http://www.w3.org/2000/svg" viewBox="0 0 448 512"><!-- Font Awesome Pro 6.0.0-alpha2 by @fontawesome - https://fontawesome.com License - https://fontawesome.com/license (Commercial License) --><path d="M320 80H312V56C312 25.125 286.875 0 256 0H192C161.125 0 136 25.125 136 56V80H128C57.25 80 0 137.25 0 208V448C0 483.375 28.625 512 64 512H384C419.375 512 448 483.375 448 448V208C448 137.25 390.75 80 320 80ZM184 56C184 51.625 187.625 48 192 48H256C260.375 48 264 51.625 264 56V80H184V56ZM320 464H128V400H320V464ZM320 352H128V320C128 302.375 142.375 288 160 288H288C305.625 288 320 302.375 320 320V352ZM400 448C400 456.875 392.875 464 384 464H368V320C368 275.875 332.125 240 288 240H160C115.875 240 80 275.875 80 320V464H64C55.125 464 48 456.875 48 448V208C48 163.875 83.875 128 128 128H320C364.125 128 400 163.875 400 208V448ZM304 160H144C135.125 160 128 167.125 128 176V192C128 200.875 135.125 208 144 208H304C312.875 208 320 200.875 320 192V176C320 167.125 312.875 160 304 160Z"/></svg>

<svg xmlns="http://www.w3.org/2000/svg" viewBox="0 0 448 512"><!--! Font Awesome Pro 6.6.0 by @fontawesome - https://fontawesome.com License - https://fontawesome.com/license (Commercial License) Copyright 2024 Fonticons, Inc. --><path d="M192 48l64 0c4.4 0 8 3.6 8 8l0 24-80 0 0-24c0-4.4 3.6-8 8-8zm-56 8l0 24-8 0C57.3 80 0 137.3 0 208L0 448c0 35.3 28.7 64 64 64l40 0 240 0 40 0c35.3 0 64-28.7 64-64l0-240c0-70.7-57.3-128-128-128l-8 0 0-24c0-30.9-25.1-56-56-56L192 0c-30.9 0-56 25.1-56 56zM368 464l0-88 0-64c0-39.8-32.2-72-72-72l-144 0c-39.8 0-72 32.2-72 72l0 64 0 88-16 0c-8.8 0-16-7.2-16-16l0-240c0-44.2 35.8-80 80-80l32 0 128 0 32 0c44.2 0 80 35.8 80 80l0 240c0 8.8-7.2 16-16 16l-16 0zm-240 0l0-64 192 0 0 64-192 0zm16-304c-13.3 0-24 10.7-24 24s10.7 24 24 24l160 0c13.3 0 24-10.7 24-24s-10.7-24-24-24l-160 0zM320 352l-192 0 0-40c0-13.3 10.7-24 24-24l144 0c13.3 0 24 10.7 24 24l0 40z"/></svg>
